TV/Source/TVP1 - Dark.svg

<svg fill-rule="evenodd" height="196.34869" viewBox="0 0 159.79531 208.75123" width="566.20386" xmlns="http://www.w3.org/2000/svg"><path d="m-211.04186 19.907183h429.92458v179.530717h-429.92458z" fill="#fff" fill-rule="evenodd" stroke-width="3.766645"/><path d="m-64.385178 19.906718h136.611685v179.530722h-136.611685zm146.656573 0h136.611685l-.00051 179.530722h-136.611175zm29.586995 29.586995v122.183177h24.6557v-37.25777l5.29666.18268c33.42219 0 49.85945-21.55085 49.85945-43.102088 0-21.00281-15.88921-42.005999-47.48534-42.005999zm24.6557 23.742669h8.94917c14.06315.18268 21.18587 4.93091 22.09891 18.99406-.73035 14.610808-9.13186 19.176738-23.37731 19.542108h-7.67077zm-132.593427 102.275708-56.617191-127.479458h27.395561l28.308595 64.470268.913035 3.83557.913035-3.83557 28.125913-64.470268h27.578244zm-99.353921-102.275708v-23.742669h-94.787992v23.742669h34.3356v98.440508h26.29947v-98.440508zm-115.608502-53.329664h136.611692v179.530722h-136.611692zm-10.04489-8.766489h450.01612v197.063701h-450.01612z" fill="#0099cb" stroke-width="3.766645"/><path d="m181.732 174.392v-55.421l-22.547 11.734v14.207l9.891-6.109-.67 35.581z" fill="#0099cb" transform="matrix(3.7666448 0 0 3.7666448 -303.63794 -448.1215)"/></svg>

<?xml version="1.0" encoding="UTF-8" standalone="no"?>
<!-- Created with Inkscape (http://www.inkscape.org/) -->

<svg
   xmlns:dc="http://purl.org/dc/elements/1.1/"
   xmlns:cc="http://creativecommons.org/ns#"
   xmlns:rdf="http://www.w3.org/1999/02/22-rdf-syntax-ns#"
   xmlns:svg="http://www.w3.org/2000/svg"
   xmlns="http://www.w3.org/2000/svg"
   xmlns:sodipodi="http://sodipodi.sourceforge.net/DTD/sodipodi-0.dtd"
   xmlns:inkscape="http://www.inkscape.org/namespaces/inkscape"
   version="1.0"
   width="566.20386"
   height="196.34869"
   viewBox="0 0 159.79531 208.75123"
   id="svg2"
   xml:space="preserve"
   style="fill-rule:evenodd"
   sodipodi:docname="TVP1 - Dark.svg"
   inkscape:version="0.92.0 r15299"><sodipodi:namedview
     pagecolor="#ffffff"
     bordercolor="#666666"
     borderopacity="1"
     objecttolerance="10"
     gridtolerance="10"
     guidetolerance="10"
     inkscape:pageopacity="0"
     inkscape:pageshadow="2"
     inkscape:window-width="1920"
     inkscape:window-height="1017"
     id="namedview12"
     showgrid="false"
     inkscape:zoom="1.0795313"
     inkscape:cx="389.49871"
     inkscape:cy="147.91439"
     inkscape:window-x="-8"
     inkscape:window-y="-8"
     inkscape:window-maximized="1"
     inkscape:current-layer="svg2"
     fit-margin-top="0"
     fit-margin-left="0"
     fit-margin-right="0"
     fit-margin-bottom="0" /><metadata
     id="metadata15"><rdf:RDF><cc:Work
         rdf:about=""><dc:format>image/svg+xml</dc:format><dc:type
           rdf:resource="http://purl.org/dc/dcmitype/StillImage" /><dc:title></dc:title></cc:Work></rdf:RDF></metadata><defs
     id="defs4"><style
       type="text/css"
       id="style6" /></defs><path
     d="M -211.04186,19.907183 H 218.88272 V 199.4379 h -429.92458 z"
     inkscape:connector-curvature="0"
     id="_74801320-0"
     style="fill:#ffffff;fill-opacity:1;fill-rule:evenodd;stroke-width:3.76664472"
     sodipodi:nodetypes="ccccc" /><path
     d="M -64.385178,19.906718 H 72.226507 V 199.43744 H -64.385178 Z m 146.656573,0 H 218.88308 l -5.1e-4,179.530722 H 82.271395 Z M 111.85839,49.493713 V 171.67689 h 24.6557 v -37.25777 l 5.29666,0.18268 c 33.42219,0 49.85945,-21.55085 49.85945,-43.102088 0,-21.00281 -15.88921,-42.005999 -47.48534,-42.005999 z m 24.6557,23.742669 h 8.94917 c 14.06315,0.18268 21.18587,4.93091 22.09891,18.99406 -0.73035,14.610808 -9.13186,19.176738 -23.37731,19.542108 h -7.67077 z M 3.920663,175.51209 -52.696528,48.032632 h 27.395561 L 3.007628,112.5029 3.920663,116.33847 4.833698,112.5029 32.959611,48.032632 H 60.537855 Z M -95.433258,73.236382 V 49.493713 h -94.787992 v 23.742669 h 34.3356 v 98.440508 h 26.29947 V 73.236382 Z M -211.04176,19.906718 H -74.430068 V 199.43744 H -211.04176 Z m -10.04489,-8.766489 H 228.92947 V 208.20393 h -450.01612 z"
     inkscape:connector-curvature="0"
     id="_74801320"
     style="fill:#0099cb;stroke-width:3.76664472;fill-opacity:1"
     sodipodi:nodetypes="cccccccccccccccssccccccccccccccccccccccccccccccccccc" /><polygon
     points="181.732,174.392 181.732,118.971 159.185,130.705 159.185,144.912 169.076,138.803 168.406,174.384 "
     id="_74801176"
     style="fill:#0099cb;fill-opacity:1"
     transform="matrix(3.7666448,0,0,3.7666448,-303.63794,-448.1215)" /></svg>
